X:31
T:Quakers Wife,The
T:Merrily Kissed The...aka. RH.024
R:Jig
S:Rev.R.Harrison's MS,c1815,Cumbria
O:England
A:Temple Sowerby,Cumbria
Z:vmp.Simon Wilson. Review PJH, 2008.
M:6/8
L:1/8
K:D
Q: 3/8=110
A|d>ef A2f|g2f e2d|\
d>ef A2A|(B3 d2):|!
z|d2f a2f|b2g a2f|d2f a2g|(f3 a2)d|!
b2g e>fg|a2f d>ef|d>ef A2A|(B3 d2)|]
%%text 2015-01-08
